X:1
T:Title
%%score ( 1 2 ) { 3 | 4 }
L:1/8
Q:1/4=130
M:3/4
K:D
V:1 treble nm="Grand Piano, Soprano"
V:2 treble 
V:3 bass nm="Choir Pad, At Easter Morn the Lark"
V:4 bass 
V:1
 [Fd]2 [FA]2 [DF]2 | [DB]4 [EG]2 | [DE]4 [CA]2 | [DF]4 D2 | [DF]2 [CE]2 [B,D]2 | z2 z2 A2 | %6
w: By~Justin~Heinrich~Knecht,~1793 * *||||||
 [Ec]4 [EB]2 | [CA]4 z2 | [Fd]2 [FA]2 [DF]2 | [DB]4 [EG]2 | [DE]4 [CA]2 | [DF]4 D2 | %12
w: ||||||
 [DF]2 [CE]2 [B,D]2 | z2 z2 A2 | [Ec]4 [EB]2 | [CA]4 z2 | [Ee]2 [Ec]2 [CA]2 | [Dd]4 [DA]2 | %18
w: ||||||
 [CA]4 [EG]2 | [EG]2 [DF]2 z2 | [DA]2 [=CA]2 [B,G]2 | [CG]4 [DF]2 | [DB]4 [B,D]2 | [A,C]4 z2 | %24
w: ||||||
 [A,D]2 [B,D]2 [=CD]2 | [B,D]4 [DF]2 | [DG]4 [DB]2 | [DB]2 [DA]2 z2 | [DB]2 [B,G]2 [B,E]2 | c4 z2 | %30
w: ||||||
 [DF]4 [CE]2 | [A,D]6- | [A,D]4 z2 |] %33
w: |||
V:2
 x6 | x6 | x6 | x6 | x6 | [CA]4 D^D | x6 | x6 | x6 | x6 | x6 | x6 | x6 | [CA]4 D^D | x6 | x6 | x6 | %17
 x6 | x6 | x6 | x6 | x6 | x6 | x6 | x6 | x6 | x6 | x6 | x6 | C2 G2 [Fd]2 | x6 | x6 | x6 |] %33
V:3
 A,2 D2 A,2 | G,4 E,2 | E,4 E,2 | D,4 F,2 | A,2 A,2 ^G,2 | A,4 A,2 | A,4 ^G,2 | A,4 z2 | %8
 A,2 D2 A,2 | G,4 E,2 | E,4 E,2 | D,4 F,2 | A,2 A,2 ^G,2 | A,4 A,2 | A,4 ^G,2 | A,4 z2 | %16
 A,2 A,2 A,2 | A,4 A,2 | A,4 A,2 | A,2 A,2 z2 | F,2 F,2 G,2 | G,4 A,2 | G,4 E,2 | E,4 z2 | %24
 F,2 F,2 F,2 | G,4 A,2 | G,4 G,2 | G,2 F,2 z2 | G,2 G,2 ^G,2 | A,4 F,2 | A,4 G,2 | F,6- | F,4 z2 |] %33
V:4
 D,2 D,2 D,2 | G,,4 G,,2 | A,,4 A,,2 | z2 z2 D,2 | D,2 E,2 =F,2 | F,4 =F,2 | E,4 E,2 | A,,4 z2 | %8
 D,2 D,2 D,2 | G,,4 G,,2 | A,,4 A,,2 | z2 z2 D,2 | D,2 E,2 =F,2 | F,4 =F,2 | E,4 E,2 | A,,4 z2 | %16
 C,2 E,2 G,2 | F,4 F,2 | E,4 C,2 | D,2 D,2 z2 | D,2 ^D,2 E,2 | E,4 D,2 | G,,4 ^G,,2 | A,,4 z2 | %24
 F,,2 B,,2 A,,2 | G,,4 D,2 | B,,4 G,,2 | D,2 D,2 z2 | G,,2 E,2 B,,2 | G,,4 B,,2 | A,,4 A,,2 | %31
 D,6- | D,4 z2 |] %33

